X:552
T:Wee Morag II
C:Nigel Gatherer
Z:Nigel Gatherer
M:4/4
L:1/8
K:Bm
z | B2 d>B c<A A2 | B>cd>e f<a e>c | B2 d>B c<A A2 | f>de<c B3  :|
c | d2 f>d a>df>d  | c<A e>A f>A e2 | d2 f>d a>df>d  | B>dc<d B2 B>c |
    d2 f>d a>df>d  | c<A e>A f>Ae>A | (3dcB (3edc (3fed (3cde | f>de<c B3  |]
